Numix-Circle/48x48/apps/openmw.svg

<?xml version="1.0" encoding="UTF-8" standalone="no"?>
<svg
   xmlns:dc="http://purl.org/dc/elements/1.1/"
   xmlns:cc="http://creativecommons.org/ns#"
   xmlns:rdf="http://www.w3.org/1999/02/22-rdf-syntax-ns#"
   xmlns:svg="http://www.w3.org/2000/svg"
   xmlns="http://www.w3.org/2000/svg"
   xmlns:xlink="http://www.w3.org/1999/xlink"
   xmlns:sodipodi="http://sodipodi.sourceforge.net/DTD/sodipodi-0.dtd"
   xmlns:inkscape="http://www.inkscape.org/namespaces/inkscape"
   viewBox="0 0 48 48"
   id="svg2"
   version="1.1"
   inkscape:version="0.48.5 r10040"
   width="100%"
   height="100%"
   sodipodi:docname="openmw.svg">
  <metadata
     id="metadata77">
    <rdf:RDF>
      <cc:Work
         rdf:about="">
        <dc:format>image/svg+xml</dc:format>
        <dc:type
           rdf:resource="http://purl.org/dc/dcmitype/StillImage" />
      </cc:Work>
    </rdf:RDF>
  </metadata>
  <sodipodi:namedview
     pagecolor="#ffffff"
     bordercolor="#666666"
     borderopacity="1"
     objecttolerance="10"
     gridtolerance="10"
     guidetolerance="10"
     inkscape:pageopacity="0"
     inkscape:pageshadow="2"
     inkscape:window-width="1280"
     inkscape:window-height="998"
     id="namedview75"
     showgrid="true"
     inkscape:zoom="2.7808334"
     inkscape:cx="28.763001"
     inkscape:cy="46.250204"
     inkscape:window-x="0"
     inkscape:window-y="0"
     inkscape:window-maximized="1"
     inkscape:current-layer="svg2">
    <inkscape:grid
       type="xygrid"
       id="grid3071" />
  </sodipodi:namedview>
  <defs
     id="defs4">
    <linearGradient
       id="linearGradient3764"
       x1="1"
       x2="47"
       gradientUnits="userSpaceOnUse"
       gradientTransform="matrix(0,-1,1,0,-1.5e-6,47.999998)">
      <stop
         stop-color="#3d3d3d"
         stop-opacity="1"
         id="stop7" />
      <stop
         offset="1"
         stop-color="#474747"
         stop-opacity="1"
         id="stop9" />
    </linearGradient>
    <clipPath
       id="clipPath-549593179">
      <g
         transform="translate(0,-1004.3622)"
         id="g12">
        <path
           d="m -24 13 c 0 1.105 -0.672 2 -1.5 2 -0.828 0 -1.5 -0.895 -1.5 -2 0 -1.105 0.672 -2 1.5 -2 0.828 0 1.5 0.895 1.5 2 z"
           transform="matrix(15.333333,0,0,11.5,414.99999,878.8622)"
           fill="#1890d0"
           id="path14" />
      </g>
    </clipPath>
    <clipPath
       id="clipPath-559001417">
      <g
         transform="translate(0,-1004.3622)"
         id="g17">
        <path
           d="m -24 13 c 0 1.105 -0.672 2 -1.5 2 -0.828 0 -1.5 -0.895 -1.5 -2 0 -1.105 0.672 -2 1.5 -2 0.828 0 1.5 0.895 1.5 2 z"
           transform="matrix(15.333333,0,0,11.5,414.99999,878.8622)"
           fill="#1890d0"
           id="path19" />
      </g>
    </clipPath>
    <clipPath
       clipPathUnits="userSpaceOnUse"
       id="clipPath3067">
      <rect
         style="opacity:0.08999999;fill:#000000;fill-opacity:1;fill-rule:nonzero;stroke:none"
         id="rect3069"
         width="228.3835"
         height="228.3835"
         x="-314.6745"
         y="-107.3238" />
    </clipPath>
    <clipPath
       clipPathUnits="userSpaceOnUse"
       id="clipPath3863">
      <path
         sodipodi:type="arc"
         style="opacity:0.56837607;fill:#352217;fill-opacity:1;fill-rule:nonzero;stroke:none"
         id="path3865"
         sodipodi:cx="28"
         sodipodi:cy="24"
         sodipodi:rx="11"
         sodipodi:ry="11"
         d="m 39,24 a 11,11 0 1 1 -22,0 11,11 0 1 1 22,0 z"
         transform="matrix(8.7839808,0,0,8.7839808,-420.08227,-203.94759)" />
    </clipPath>
    <linearGradient
       inkscape:collect="always"
       xlink:href="#linearGradient3764"
       id="linearGradient3945"
       gradientUnits="userSpaceOnUse"
       gradientTransform="matrix(0,-1,1,0,-1.5e-6,47.999998)"
       x1="1"
       x2="47" />
  </defs>
  <path
     style="opacity:0.05"
     inkscape:connector-curvature="0"
     id="path23"
     d="m 36.31,5 c 5.859,4.062 9.688,10.831 9.688,18.5 0,12.426 -10.07,22.5 -22.5,22.5 -7.669,0 -14.438,-3.828 -18.5,-9.688 1.037,1.822 2.306,3.499 3.781,4.969 4.085,3.712 9.514,5.969 15.469,5.969 12.703,0 23,-10.298 23,-23 0,-5.954 -2.256,-11.384 -5.969,-15.469 C 39.81,7.306 38.132,6.037 36.31,5 z m 4.969,3.781 c 3.854,4.113 6.219,9.637 6.219,15.719 0,12.703 -10.297,23 -23,23 -6.081,0 -11.606,-2.364 -15.719,-6.219 4.16,4.144 9.883,6.719 16.219,6.719 12.703,0 23,-10.298 23,-23 0,-6.335 -2.575,-12.06 -6.719,-16.219 z" />
  <path
     style="opacity:0.1"
     inkscape:connector-curvature="0"
     id="path25"
     d="m 41.28,8.781 c 3.712,4.085 5.969,9.514 5.969,15.469 0,12.703 -10.297,23 -23,23 -5.954,0 -11.384,-2.256 -15.469,-5.969 4.113,3.854 9.637,6.219 15.719,6.219 12.703,0 23,-10.298 23,-23 0,-6.081 -2.364,-11.606 -6.219,-15.719 z" />
  <path
     style="opacity:0.2"
     inkscape:connector-curvature="0"
     id="path27"
     d="M 31.25,2.375 C 39.865,5.529 46,13.792 46,23.505 c 0,12.426 -10.07,22.5 -22.5,22.5 -9.708,0 -17.971,-6.135 -21.12,-14.75 a 23,23 0 0 0 44.875,-7 23,23 0 0 0 -16,-21.875 z" />
  <path
     inkscape:connector-curvature="0"
     style="fill:url(#linearGradient3945);fill-opacity:1"
     id="path31"
     d="M 24,1 C 36.703,1 47,11.297 47,24 47,36.703 36.703,47 24,47 11.297,47 1,36.703 1,24 1,11.297 11.297,1 24,1 z" />
  <path
     style="fill:#000000;fill-opacity:1;stroke:none;opacity:0.1"
     d="M 28 12 C 18 12 13 19 13 25 C 13 31 18 38 28 38 C 22 34.430749 19 31 19 25 C 19 19 22 15.569251 28 12 z M 26 16 C 26.583346 17.353302 27.463931 18.865038 27.28125 21.21875 C 25.319222 20.428394 22.369216 20.313608 19.71875 23.09375 C 21.183284 23.265311 22.926589 23.256284 24.875 24.59375 C 23.203192 25.893794 21.632646 28.395835 22.71875 32.09375 C 23.594449 30.918113 24.45722 29.393676 26.5625 28.375 C 26.850521 30.47387 28.250731 33.090732 32 34 C 31.416654 32.646698 30.536069 31.134962 30.71875 28.78125 C 32.680778 29.571606 35.630784 29.686392 38.28125 26.90625 C 36.816716 26.734689 35.073411 26.743716 33.125 25.40625 C 34.796808 24.106206 36.367354 21.604165 35.28125 17.90625 C 34.405551 19.081887 33.54278 20.606324 31.4375 21.625 C 31.149479 19.52613 29.749269 16.909268 26 16 z "
     id="path4027" />
  <path
     style="opacity:0.1"
     inkscape:connector-curvature="0"
     id="path73"
     d="m 40.03,7.531 c 3.712,4.084 5.969,9.514 5.969,15.469 0,12.703 -10.297,23 -23,23 C 17.045,46 11.615,43.744 7.53,40.031 11.708,44.322 17.54,47 23.999,47 c 12.703,0 23,-10.298 23,-23 0,-6.462 -2.677,-12.291 -6.969,-16.469 z" />
  <path
     style="opacity:1;fill:#352217;fill-opacity:1;stroke:none"
     d="M 27 11 C 17 11 12 18 12 24 C 12 30 17 37 27 37 C 21 33.430749 18 30 18 24 C 18 18 21 14.569251 27 11 z "
     id="path3075" />
  <path
     style="opacity:1;fill:#aba674;fill-opacity:1;stroke:none"
     d="M 27,11 C 17,11 12,18 12,24 12,30 17,37 27,37 19,35 15,30 15,24 15,18 19,13 27,11 z"
     id="path3847"
     inkscape:connector-curvature="0"
     sodipodi:nodetypes="cscsc" />
  <path
     style="fill:#352217;fill-opacity:1;stroke:none"
     d="m 21.705771,31.098076 c -1.341348,-4.566957 1.374668,-7.366385 3.321346,-8.247259 L 28,24 c -4.155447,2.803808 -5.452397,4.999364 -6.294229,7.098076 z"
     id="path3917"
     inkscape:connector-curvature="0"
     sodipodi:nodetypes="cccc" />
  <path
     style="fill:#352217;fill-opacity:1;stroke:none"
     d="m 34.294228,16.901924 c 1.341348,4.566957 -1.374668,7.366385 -3.321346,8.247259 L 27.999999,24 c 4.155447,-2.803808 5.452397,-4.999364 6.294229,-7.098076 z"
     id="path3925"
     inkscape:connector-curvature="0"
     sodipodi:nodetypes="cccc" />
  <path
     style="fill:#352217;fill-opacity:1;stroke:none"
     d="m 25,15 c 4.625775,1.121837 5.692142,4.87369 5.481663,7 L 28,24 c -0.350446,-5.000626 -1.603378,-7.221596 -3,-9 z"
     id="path3869"
     inkscape:connector-curvature="0"
     sodipodi:nodetypes="cccc" />
  <path
     sodipodi:nodetypes="ccccc"
     inkscape:connector-curvature="0"
     id="path3879"
     d="m 28,24 0,-4 c 0,-2 -0.809471,-3.236147 -3,-5 0.60959,1.414186 1.565916,3 1.270171,5.540342 z"
     style="fill:#71b8d0;fill-opacity:1;stroke:none" />
  <path
     style="fill:#aba674;fill-opacity:1;stroke:none"
     d="m 27.999999,24 3.464102,-2 c 1.732051,-1 2.39785,-2.319096 2.830127,-5.098076 -0.919926,1.235013 -1.815118,2.856123 -4.162991,3.870171 z"
     id="path3927"
     inkscape:connector-curvature="0"
     sodipodi:nodetypes="ccccc" />
  <path
     style="fill:#be71d0;fill-opacity:1;stroke:none"
     d="M 31,33 C 26.374225,31.878163 25.307858,28.12631 25.518337,26 L 28,24 c 0.350446,5.000626 1.603378,7.221596 3,9 z"
     id="path3883"
     inkscape:connector-curvature="0"
     sodipodi:nodetypes="cccc" />
  <path
     style="fill:#71b8d0;fill-opacity:1;stroke:none"
     d="m 28,24 0,4 c 0,2 0.809471,3.236147 3,5 -0.60959,-1.414186 -1.565916,-3 -1.270171,-5.540342 z"
     id="path3885"
     inkscape:connector-curvature="0"
     sodipodi:nodetypes="ccccc" />
  <path
     sodipodi:nodetypes="cccc"
     inkscape:connector-curvature="0"
     id="path3871"
     d="M 31,33 C 26.374225,31.878163 25.307858,28.12631 25.518337,26 L 28,24 c 0.350446,5.000626 1.603378,7.221596 3,9 z"
     style="fill:#352217;fill-opacity:1;stroke:none" />
  <path
     sodipodi:nodetypes="cccc"
     inkscape:connector-curvature="0"
     id="path3903"
     d="m 18.705771,22.098076 c 3.284427,-3.44512 7.066811,-2.492695 8.80301,-1.247259 L 28,24 c -4.505892,-2.196818 -7.055775,-2.222232 -9.294229,-1.901924 z"
     style="fill:#352217;fill-opacity:1;stroke:none" />
  <path
     sodipodi:nodetypes="ccccc"
     inkscape:connector-curvature="0"
     id="path3921"
     d="m 28,24 -3.464102,2 c -1.732051,1 -2.39785,2.319096 -2.830127,5.098076 0.919926,-1.235013 1.815118,-2.856123 4.162991,-3.870171 z"
     style="fill:#aba674;fill-opacity:1;stroke:none" />
  <path
     style="fill:#aba674;fill-opacity:1;stroke:none"
     d="m 28,24 -3.464102,-2 c -1.732051,-1 -3.207321,-0.917051 -5.830127,0.09808 1.529516,0.179173 3.381034,0.143877 5.433163,1.670171 z"
     id="path3907"
     inkscape:connector-curvature="0"
     sodipodi:nodetypes="ccccc" />
  <path
     style="opacity:1;fill:#aba674;fill-opacity:1;stroke:none"
     d="m 28,24 0,-4 c 0,-2 -0.809471,-3.236147 -3,-5 0.60959,1.414186 1.565916,3 1.270171,5.540342 z"
     id="path3867"
     inkscape:connector-curvature="0"
     sodipodi:nodetypes="ccccc" />
  <path
     sodipodi:nodetypes="cccc"
     inkscape:connector-curvature="0"
     id="path3911"
     d="m 37.294228,25.901924 c -3.284427,3.44512 -7.06681,2.492695 -8.803009,1.247259 L 27.999999,24 c 4.505893,2.196818 7.055775,2.222232 9.294229,1.901924 z"
     style="fill:#352217;fill-opacity:1;stroke:none" />
  <path
     sodipodi:nodetypes="ccccc"
     inkscape:connector-curvature="0"
     id="path3913"
     d="m 27.999999,24 3.464102,2 c 1.732051,1 3.207321,0.917051 5.830127,-0.09808 -1.529516,-0.179173 -3.381034,-0.143877 -5.433162,-1.670171 z"
     style="fill:#aba674;fill-opacity:1;stroke:none" />
  <path
     sodipodi:nodetypes="ccccc"
     inkscape:connector-curvature="0"
     id="path3873"
     d="m 28,24 0,4 c 0,2 0.809471,3.236147 3,5 -0.60959,-1.414186 -1.565916,-3 -1.270171,-5.540342 z"
     style="fill:#aba674;fill-opacity:1;stroke:none" />
</svg>

<svg xmlns="http://www.w3.org/2000/svg" viewBox="0 0 48 48"><defs><clipPath><g transform="translate(0,-1004.3622)"><path d="m -24 13 c 0 1.105 -0.672 2 -1.5 2 -0.828 0 -1.5 -0.895 -1.5 -2 0 -1.105 0.672 -2 1.5 -2 0.828 0 1.5 0.895 1.5 2 z" transform="matrix(15.333333,0,0,11.5,414.99999,878.8622)" fill="#1890d0"/></g></clipPath><clipPath><g transform="translate(0,-1004.3622)"><path d="m -24 13 c 0 1.105 -0.672 2 -1.5 2 -0.828 0 -1.5 -0.895 -1.5 -2 0 -1.105 0.672 -2 1.5 -2 0.828 0 1.5 0.895 1.5 2 z" transform="matrix(15.333333,0,0,11.5,414.99999,878.8622)" fill="#1890d0"/></g></clipPath><clipPath clipPathUnits="userSpaceOnUse"><rect width="228.38" height="228.38" x="-314.67" y="-107.32" opacity="0.09" fill="#000" fill-rule="nonzero" stroke="none" fill-opacity="1"/></clipPath><clipPath clipPathUnits="userSpaceOnUse"><path d="m 39 24 a 11 11 0 1 1 -22 0 11 11 0 1 1 22 0 z" transform="matrix(8.7839808,0,0,8.7839808,-420.08227,-203.94759)"/></clipPath><linearGradient id="linearGradient3945" gradientUnits="userSpaceOnUse" gradientTransform="matrix(0,-1,1,0,-1.5e-6,47.999998)" x1="1" x2="47"><stop stop-color="#3d3d3d" stop-opacity="1"/><stop offset="1" stop-color="#474747" stop-opacity="1"/></linearGradient></defs><path d="m 36.31,5 c 5.859,4.062 9.688,10.831 9.688,18.5 0,12.426 -10.07,22.5 -22.5,22.5 -7.669,0 -14.438,-3.828 -18.5,-9.688 1.037,1.822 2.306,3.499 3.781,4.969 4.085,3.712 9.514,5.969 15.469,5.969 12.703,0 23,-10.298 23,-23 0,-5.954 -2.256,-11.384 -5.969,-15.469 C 39.81,7.306 38.132,6.037 36.31,5 z m 4.969,3.781 c 3.854,4.113 6.219,9.637 6.219,15.719 0,12.703 -10.297,23 -23,23 -6.081,0 -11.606,-2.364 -15.719,-6.219 4.16,4.144 9.883,6.719 16.219,6.719 12.703,0 23,-10.298 23,-23 0,-6.335 -2.575,-12.06 -6.719,-16.219 z" opacity="0.05"/><path d="m 41.28 8.781 c 3.712 4.085 5.969 9.514 5.969 15.469 0 12.703 -10.297 23 -23 23 -5.954 0 -11.384 -2.256 -15.469 -5.969 4.113 3.854 9.637 6.219 15.719 6.219 12.703 0 23 -10.298 23 -23 0 -6.081 -2.364 -11.606 -6.219 -15.719 z" opacity="0.1"/><path d="M 31.25,2.375 C 39.865,5.529 46,13.792 46,23.505 c 0,12.426 -10.07,22.5 -22.5,22.5 -9.708,0 -17.971,-6.135 -21.12,-14.75 a 23,23 0 0 0 44.875,-7 23,23 0 0 0 -16,-21.875 z" opacity="0.2"/><path d="M 24,1 C 36.703,1 47,11.297 47,24 47,36.703 36.703,47 24,47 11.297,47 1,36.703 1,24 1,11.297 11.297,1 24,1 z" fill="url(#linearGradient3945)" fill-opacity="1"/><path d="m 28 12 c -10 0 -15 7 -15 13 c 0 6 5 13 15 13 c -6 -3.569 -9 -7 -9 -13 c 0 -6 3 -9.431 9 -13 z m -2 4 c 0.583 1.353 1.464 2.865 1.281 5.219 c -1.962 -0.79 -4.912 -0.905 -7.563 1.875 c 1.465 0.172 3.208 0.163 5.156 1.5 c -1.672 1.3 -3.242 3.802 -2.156 7.5 c 0.876 -1.176 1.738 -2.7 3.844 -3.719 c 0.288 2.099 1.688 4.716 5.438 5.625 c -0.583 -1.353 -1.464 -2.865 -1.281 -5.219 c 1.962 0.79 4.912 0.905 7.563 -1.875 c -1.465 -0.172 -3.208 -0.163 -5.156 -1.5 c 1.672 -1.3 3.242 -3.802 2.156 -7.5 c -0.876 1.176 -1.738 2.7 -3.844 3.719 c -0.288 -2.099 -1.688 -4.716 -5.438 -5.625 z" opacity="0.1" fill="#000" stroke="none" fill-opacity="1"/><path d="m 40.03,7.531 c 3.712,4.084 5.969,9.514 5.969,15.469 0,12.703 -10.297,23 -23,23 C 17.045,46 11.615,43.744 7.53,40.031 11.708,44.322 17.54,47 23.999,47 c 12.703,0 23,-10.298 23,-23 0,-6.462 -2.677,-12.291 -6.969,-16.469 z" opacity="0.1"/><path d="m 27 11 c -10 0 -15 7 -15 13 c 0 6 5 13 15 13 c -6 -3.569 -9 -7 -9 -13 c 0 -6 3 -9.431 9 -13 z" opacity="1" fill="#352217" stroke="none" fill-opacity="1"/><path d="M 27,11 C 17,11 12,18 12,24 12,30 17,37 27,37 19,35 15,30 15,24 15,18 19,13 27,11 z" opacity="1" fill="#aba674" stroke="none" fill-opacity="1"/><path d="m 21.706 31.1 c -1.341 -4.567 1.375 -7.366 3.321 -8.247 l 2.973 1.149 c -4.155 2.804 -5.452 4.999 -6.294 7.098 z" fill="#352217" stroke="none" fill-opacity="1"/><path d="m 34.29 16.902 c 1.341 4.567 -1.375 7.366 -3.321 8.247 l -2.973 -1.149 c 4.155 -2.804 5.452 -4.999 6.294 -7.098 z" fill="#352217" stroke="none" fill-opacity="1"/><path d="m 25 15 c 4.626 1.122 5.692 4.874 5.482 7 l -2.482 2 c -0.35 -5 -1.603 -7.222 -3 -9 z" fill="#352217" stroke="none" fill-opacity="1"/><path d="m 28 24 0 -4 c 0 -2 -0.809 -3.236 -3 -5 0.61 1.414 1.566 3 1.27 5.54 z" fill="#71b8d0" stroke="none" fill-opacity="1"/><path d="m 28 24 3.464 -2 c 1.732 -1 2.398 -2.319 2.83 -5.098 -0.92 1.235 -1.815 2.856 -4.163 3.87 z" fill="#aba674" stroke="none" fill-opacity="1"/><path d="m 31 33 c -4.626 -1.122 -5.692 -4.874 -5.482 -7 l 2.482 -2 c 0.35 5 1.603 7.222 3 9 z" fill="#be71d0" stroke="none" fill-opacity="1"/><path d="m 28 24 0 4 c 0 2 0.809 3.236 3 5 -0.61 -1.414 -1.566 -3 -1.27 -5.54 z" fill="#71b8d0" stroke="none" fill-opacity="1"/><path d="m 31 33 c -4.626 -1.122 -5.692 -4.874 -5.482 -7 l 2.482 -2 c 0.35 5 1.603 7.222 3 9 z" fill="#352217" stroke="none" fill-opacity="1"/><path d="m 18.706 22.1 c 3.284 -3.445 7.07 -2.493 8.803 -1.247 l 0.491 3.149 c -4.506 -2.197 -7.06 -2.222 -9.294 -1.902 z" fill="#352217" stroke="none" fill-opacity="1"/><path d="m 28 24 -3.464 2 c -1.732 1 -2.398 2.319 -2.83 5.098 0.92 -1.235 1.815 -2.856 4.163 -3.87 z" fill="#aba674" stroke="none" fill-opacity="1"/><path d="m 28 24 -3.464 -2 c -1.732 -1 -3.207 -0.917 -5.83 0.098 1.53 0.179 3.381 0.144 5.433 1.67 z" fill="#aba674" stroke="none" fill-opacity="1"/><path d="m 28 24 0 -4 c 0 -2 -0.809 -3.236 -3 -5 0.61 1.414 1.566 3 1.27 5.54 z" opacity="1" fill="#aba674" stroke="none" fill-opacity="1"/><path d="m 37.29 25.902 c -3.284 3.445 -7.07 2.493 -8.803 1.247 l -0.491 -3.149 c 4.506 2.197 7.06 2.222 9.294 1.902 z" fill="#352217" stroke="none" fill-opacity="1"/><path d="m 28 24 3.464 2 c 1.732 1 3.207 0.917 5.83 -0.098 -1.53 -0.179 -3.381 -0.144 -5.433 -1.67 z" fill="#aba674" stroke="none" fill-opacity="1"/><path d="m 28 24 0 4 c 0 2 0.809 3.236 3 5 -0.61 -1.414 -1.566 -3 -1.27 -5.54 z" fill="#aba674" stroke="none" fill-opacity="1"/></svg>
